!!!COM:	Bach, Johann Sebastian
!!!OMV:	Oh God, how many heart pains
!!!OTL:	Oh God, how many heart pains
**kern	**fb	**kern	**kern	**kern	**kern
*part5	*part5	*part4	*part3	*part2	*part1
*staff5	*	*staff4	*staff3	*staff2	*staff1
*I"Continuo	*	*I"Voice	*I"Voice	*I"Voice	*I"Voice
*I'Cont.	*	*I'V	*I'V	*I'V	*I'V
*clefF4	*	*clefF4	*clefGv2	*clefG2	*clefG2
*Trd0c0	*	*	*	*	*
*k[f#c#g#d#]	*	*k[f#c#g#d#]	*k[f#c#g#d#]	*k[f#c#g#d#]	*k[f#c#g#d#]
*M4/4	*	*M4/4	*M4/4	*M4/4	*M4/4
4EE	.	4EE	8G#L	4B	8eL
.	.	.	8AJ	.	8f#J
=2	=2	=2	=2	=2	=2
4E	.	4E	4B	4e	4g#
4F#	7	4F#	4A	8eL	4a
.	6	.	.	8d#J	.
4G#	6	4G#	4G#	4e	4b
4C#	7	4C#	4G#	4e	4b
=3	=3	=3	=3	=3	=3
4D#	6 5	4D#	4F#	4B	4a
4E	.	4E	8G#L	8BL	4g#
.	.	.	8AJ	8c#J	.
4BB;	.	4BB;	4B;	4d#;	4f#;
4B	.	4B	4d#	4f#	4b
=4	=4	=4	=4	=4	=4
4A#X	6	4A#X	4c#	4f#	4cc#
8G#L	5 #2|	8G#L	4A#X	4f#	4dd#
8F#J	.	8F#J	.	.	.
4G#	6	4G#	4B	8eL	4ee
.	.	.	.	8f#J	.
8F#L	6 4	8F#L	4B	4g#	8dd#L
8EJ	6 5	8EJ	.	.	8cc#J
=	=	=	=	=	=
4F#	4	4F#	4B	4.f#	2cc#
4FF#	#	4FF#	4A#X	.	.
.	.	.	.	8e	.
4BB;	.	4BB;	4B;	4d#;	4b;
=5:|!	=5:|!	=5:|!	=5:|!	=5:|!	=5:|!
!!linebreak:original
8EL	.	8EL	4G#	8eL	4b
8D#J	.	8D#J	.	8f#J	.
=6	=6	=6	=6	=6	=6
4C#	.	4C#	4c#	4g#	4ee
8F#L	6 5	8F#L	8c#L	8aL	4dd#
8G#J	3	8G#J	8BJ	8bJ	.
4A	.	4A	4A	4e	4cc#
8D#L	6 5	8D#L	8AL	8f#L	4b
8E#XJ	6 5	8E#XJ	8G#J	8g#J	.
=7	=7	=7	=7	=7	=7
4F#	5	4F#	4A	8c#L	4a
.	6	.	.	8d#J	.
8G#L	6	8G#L	8BL	4e	4g#
8A#XJ	.	8A#XJ	8c#J	.	.
4B;	.	4B;	4d#;	4d#;	4f#;
4G#	5	4G#	4d#	8g#L	4b
.	7	.	.	8f#J	.
=8	=8	=8	=8	=8	=8
8C#L	6	8C#L	4c#	4e	4a
8D#J	.	8D#J	.	.	.
4E	.	4E	4B	4e	4g#
8AAL	6 5	8AAL	8c#L	8eL	8f#L
8BBJ	6	8BBJ	8BJ	8d#J	8g#J
4C#	6	4C#	4A	4e	4a
=9	=9	=9	=9	=9	=9
8BBL	6 4	8BBL	4.B	4e	4g#
8AAJ	.	8AAJ	.	.	.
4BB	5 3	4BB	.	4d#	4f#
.	.	.	8A	.	.
4EE;	.	4EE;	4G#;	4B;	4e;
=||	=||	=||	=||	=||	=||
*-	*-	*-	*-	*-	*-
!!!system-decoration: s1,s2,s3,s4,s5
